X:13
T:The Queen of Sluts
Z:Jack Campin <http://www.campin.me.uk/>
S:Raven, 1000 English Country Dance Tunes
M:2/4
L:1/8
Q:1/4=144
K:G
g2 dB|cd`ef|g2 dd|cA A2|g2 dB|cdef|gbaf|g2 z2:|
a2 fd|a2 gf|ef`ga|gf`ed|dB`cd|efga|gfed|g2 z2:|
